symbols/web/supervisor_account/materialsymbolsrounded/supervisor_account_wght700fill1_20px.svg

<svg xmlns="http://www.w3.org/2000/svg" height="20" width="20"><path d="M14.812 12.896q-1.041 0-1.781-.74-.739-.739-.739-1.781 0-1.042.739-1.781.74-.74 1.781-.74 1.042 0 1.782.74.739.739.739 1.781 0 1.042-.739 1.781-.74.74-1.782.74Zm-3.291 4.833q-.542 0-.948-.406-.406-.406-.406-.948v-.313q0-.645.333-1.187t.938-.792q.791-.333 1.645-.479.855-.146 1.729-.146.876 0 1.719.146.844.146 1.636.479.604.25.948.802.343.553.343 1.177v.313q0 .542-.406.948-.406.406-.948.406ZM7.979 9.625q-1.729 0-2.885-1.156-1.156-1.157-1.156-2.886t1.156-2.875Q6.25 1.562 7.979 1.562q1.729 0 2.886 1.146 1.156 1.146 1.156 2.875t-1.156 2.886Q9.708 9.625 7.979 9.625Zm-6.083 8.104q-.542 0-.948-.406-.406-.406-.406-.948v-1.667q0-1.041.448-1.823.448-.781 1.177-1.114 1.5-.688 2.906-.99 1.406-.302 2.906-.302.604 0 1.198.052t.927.115v1.396q-.396.229-.646.5-.25.27-.396.666-.124.459-.27.834-.146.375-.188.979v2.708Z"/></svg>

<svg xmlns="http://www.w3.org/2000/svg" height="20" width="20"><path d="M14.812 12.896Q13.771 12.896 13.031 12.156Q12.292 11.417 12.292 10.375Q12.292 9.333 13.031 8.594Q13.771 7.854 14.812 7.854Q15.854 7.854 16.594 8.594Q17.333 9.333 17.333 10.375Q17.333 11.417 16.594 12.156Q15.854 12.896 14.812 12.896ZM11.521 17.729Q10.979 17.729 10.573 17.323Q10.167 16.917 10.167 16.375V16.062Q10.167 15.417 10.5 14.875Q10.833 14.333 11.438 14.083Q12.229 13.75 13.083 13.604Q13.938 13.458 14.812 13.458Q15.688 13.458 16.531 13.604Q17.375 13.75 18.167 14.083Q18.771 14.333 19.115 14.885Q19.458 15.438 19.458 16.062V16.375Q19.458 16.917 19.052 17.323Q18.646 17.729 18.104 17.729ZM7.979 9.625Q6.25 9.625 5.094 8.469Q3.938 7.312 3.938 5.583Q3.938 3.854 5.094 2.708Q6.25 1.562 7.979 1.562Q9.708 1.562 10.865 2.708Q12.021 3.854 12.021 5.583Q12.021 7.312 10.865 8.469Q9.708 9.625 7.979 9.625ZM1.896 17.729Q1.354 17.729 0.948 17.323Q0.542 16.917 0.542 16.375V14.708Q0.542 13.667 0.99 12.885Q1.438 12.104 2.167 11.771Q3.667 11.083 5.073 10.781Q6.479 10.479 7.979 10.479Q8.583 10.479 9.177 10.531Q9.771 10.583 10.104 10.646V12.042Q9.708 12.271 9.458 12.542Q9.208 12.812 9.062 13.208Q8.938 13.667 8.792 14.042Q8.646 14.417 8.604 15.021V17.729Z"/></svg>
